X: 123
M: 2/4
L: 1/16
K: Bb
V: 1
~B4 cecA | ~d4 (eg).f.e | d2B2 G2A2 | {c}B4 B2 :|
|: F2 |\
V: 2 clef=bass middle=d
z2 |\
bf'd'f' c'f'e'f' | bf'd'f' bf'd'f' | af'c'f' bf'd'f' | ec'=ec' f2z2 |
|: z2 |\
fc'gc' ac'fc' | Bbcb dbBb | ebgb =ec'gc' | fc'ac' f2z2 |


